X: 77
T: No_170_Work_Steadily.krn
%%abc-version 2.0
%%abcx-abcm2ps-target-version 5.9.1 (29 Sep 2008)
%%abc-creator hum2abc beta
%%abcx-conversion-date 2020/08/10 18:54:57
%%humdrum-veritas 3851065467
%%humdrum-veritas-data 3932814724
%%linebreak <none>
%%barnumbers 0
L: 1/8
M: 3/4
K: Gb clef=bass
B,E EB, [I:setbarnb 1]| 
E2>E2 DE ||  
[M:2/4]B,7/G,/ ||  
[M:3/4]A,4{/A,}E2 ||  
[M:2/4]B,B, B,B, | 
A,2G,2 | 
G,3E, | 
E,4- | 
E,E, (3E,E,C | 
A,3E, ||  
[M:3/4]A,4{/A,}E2 ||  
[M:2/4]B,B, B,B, | 
A,3G, | 
G,3E, | 
E,4 |]  


